app/assets/images/welcome/upcase-logo--hero.svg

<?xml version="1.0" encoding="UTF-8"?>
<svg width="93px" height="93px" viewBox="0 0 93 93" version="1.1" xmlns="http://www.w3.org/2000/svg" xmlns:xlink="http://www.w3.org/1999/xlink">
    <!-- Generator: Sketch 42 (36781) - http://www.bohemiancoding.com/sketch -->
    <title>upcase-logo--hero</title>
    <desc>Created with Sketch.</desc>
    <defs>
        <linearGradient x1="50%" y1="0%" x2="50%" y2="84.2873011%" id="linearGradient-1">
            <stop stop-color="#3FBCFF" offset="0%"></stop>
            <stop stop-color="#A2F6F9" offset="100%"></stop>
        </linearGradient>
    </defs>
    <g stroke="none" stroke-width="1" fill="none" fill-rule="evenodd">
        <g>
            <rect fill-opacity="0.0875792572" fill="#9EF4F9" x="0" y="0" width="93" height="93" rx="46.5"></rect>
            <path d="M19.8163397,61.3795101 C19.2272988,62.2967215 19.4197807,63.4966823 20.2697157,64.1851656 C21.4118522,65.1127215 23.0178004,66.3460146 24.2492207,67.2816162 C25.1211868,67.9448129 26.3386927,67.903435 27.1700753,67.1896652 C35.6439162,59.9094432 37.4040818,58.5646595 42.6068903,53.8533191 C44.6499811,52.0028048 47.7865082,51.9901615 49.849311,53.8176881 C56.6487915,59.8393305 59.6913967,62.2082187 65.3649741,67.1965615 C66.1824423,67.9149289 67.392991,67.9678007 68.2707548,67.3218448 C69.5462371,66.382795 71.2310334,65.1311117 72.4276677,64.1989583 C73.3054315,63.5162219 73.5176254,62.2955721 72.9181487,61.3634187 C68.1234946,53.9038921 53.3418136,32.4172374 48.1761101,24.9243787 C47.3053035,23.6612015 45.4384611,23.6612015 44.5676546,24.9243787 C39.3961534,32.4252832 24.5866437,53.9521664 19.8163397,61.3795101 Z" fill="url(#linearGradient-1)"></path>
        </g>
    </g>
</svg>

<svg role="img" width="93" height="93" aria-labelledby="upcase-logo-svg" xmlns="http://www.w3.org/2000/svg">
  <title id="upcase-logo-svg">Upcase logo</title>
  <defs>
    <linearGradient x1="50%" y1="0%" x2="50%" y2="84.287%" id="a">
      <stop stop-color="#3FBCFF" offset="0%"/>
      <stop stop-color="#A2F6F9" offset="100%"/>
    </linearGradient>
  </defs>
  <g fill-rule="nonzero" fill="none">
    <rect fill-opacity=".158" fill="#9EF4F9" width="93" height="93" rx="46.5"/>
    <path d="M19.816 61.38a2.121 2.121 0 0 0 .454 2.805 174.8 174.8 0 0 0 3.98 3.097c.871.663 2.089.621 2.92-.092 8.474-7.28 10.234-8.625 15.437-13.337a5.443 5.443 0 0 1 7.242-.035c6.8 6.021 9.842 8.39 15.516 13.379a2.32 2.32 0 0 0 2.906.125c1.275-.94 2.96-2.19 4.157-3.123a2.123 2.123 0 0 0 .49-2.836c-4.795-7.46-19.576-28.946-24.742-36.439a2.192 2.192 0 0 0-3.608 0c-5.172 7.501-19.981 29.028-24.752 36.456z" fill="url(#a)"/>
  </g>
</svg>
